dist/img/icons/icon-form-2.svg

<svg width="235" height="176" viewBox="0 0 235 176" fill="none" xmlns="http://www.w3.org/2000/svg">
<path d="M229.566 162.661C229.566 164.785 228.681 166.733 227.264 168.15C225.848 169.566 223.9 170.452 221.775 170.452H210V175.233H221.864C225.317 175.233 228.415 173.816 230.717 171.603C233.019 169.301 234.347 166.202 234.347 162.749V150H229.566V162.661Z" fill="#DADAE4"/>
<path d="M7.08286 168.061C5.66629 166.645 4.78093 164.697 4.78093 162.572V150H0V162.661C0 166.114 1.41657 169.212 3.62997 171.514C6.02043 173.728 9.11918 175.144 12.5721 175.144H24.4359V170.363H12.5721C10.4472 170.363 8.49943 169.478 7.08286 168.061Z" fill="#DADAE4"/>
<path d="M230.806 3.62997C228.504 1.32804 225.405 0 221.952 0H210V4.78093H221.864C223.989 4.78093 225.936 5.66629 227.353 7.08286C228.77 8.49943 229.655 10.4472 229.655 12.5721V25.2327H234.436V12.4835C234.436 9.03065 233.019 5.93189 230.806 3.62997Z" fill="#DADAE4"/>
<path d="M3.62997 3.62997C1.32804 5.9319 0 9.03065 0 12.4835V25.1442H4.78093V12.4835C4.78093 10.3587 5.66629 8.4109 7.08286 6.99433C8.49943 5.57775 10.4472 4.6924 12.5721 4.6924H24.4359V0H12.4835C9.03065 0 5.9319 1.41657 3.62997 3.62997Z" fill="#DADAE4"/>
<path d="M162 145.088C162 147.802 159.748 150 156.971 150C154.194 150 151.942 147.802 151.942 145.088C151.942 113.576 135.862 108.789 121.999 108.789C108.136 108.789 92.0557 118.269 92.0557 145.088C92.0557 147.802 89.8059 150 87.0292 150C84.2524 150 82 147.802 82 145.088C82 120.615 93.6603 109.897 103.892 103.875C93.6603 97.8523 86.8023 86.8927 86.8023 74.3933C86.8023 55.4298 102.592 40 121.999 40C141.408 40 157.198 55.4298 157.198 74.3933C157.198 86.8927 151.526 97.8523 141.294 103.875C150.235 108.789 162 115.923 162 145.088ZM147.139 74.3933C147.139 60.8465 135.862 49.8263 121.999 49.8263C108.136 49.8263 96.8581 60.8465 96.8581 74.3933C96.8581 87.9402 108.136 98.9604 121.999 98.9604C135.862 98.9604 147.139 87.9402 147.139 74.3933Z" fill="#DADAE4" stroke="white" stroke-width="5"/>
<path d="M188.061 111H138.121C134.746 111 132 113.746 132 117.121V143.782C132 147.157 134.746 149.903 138.121 149.903H188.061C191.436 149.903 194.182 147.157 194.182 143.782V117.121C194.182 113.746 191.436 111 188.061 111Z" fill="white"/>
<path d="M188.061 110.6H138.121C134.525 110.6 131.6 113.525 131.6 117.121V143.782C131.6 147.378 134.525 150.303 138.121 150.303H188.061C191.657 150.303 194.582 147.378 194.582 143.782V117.121C194.582 113.525 191.657 110.6 188.061 110.6ZM191.678 143.782C191.678 145.776 190.055 147.4 188.061 147.4H138.121C136.127 147.4 134.503 145.776 134.503 143.782V117.121C134.503 115.127 136.127 113.503 138.121 113.503H188.061C190.055 113.503 191.678 115.127 191.678 117.121V143.782Z" fill="#DADAE4" stroke="#DADAE4" stroke-width="0.8"/>
<path d="M143.6 144.708C143.6 145.504 144.262 146.127 145.052 146.127C145.842 146.127 146.504 145.504 146.504 144.708C146.504 141.503 147.328 139.752 148.413 138.791C149.507 137.823 150.952 137.578 152.367 137.578C153.73 137.578 155.189 138.04 156.305 139.142C157.417 140.238 158.23 142.01 158.23 144.708C158.23 145.504 158.892 146.127 159.682 146.127C160.471 146.127 161.134 145.504 161.134 144.708C161.134 142.102 160.507 140.199 159.582 138.78C158.811 137.596 157.845 136.768 156.905 136.152C158.853 134.785 160.129 132.559 160.129 130.043C160.129 125.876 156.635 122.508 152.367 122.508C148.098 122.508 144.605 125.876 144.605 130.043C144.605 132.553 145.875 134.774 147.815 136.142C146.905 136.68 145.935 137.321 145.162 138.4C144.221 139.714 143.6 141.631 143.6 144.708ZM147.508 130.043C147.508 127.465 149.676 125.347 152.367 125.347C155.058 125.347 157.226 127.465 157.226 130.043C157.226 132.62 155.058 134.739 152.367 134.739C149.676 134.739 147.508 132.62 147.508 130.043Z" fill="#DADAE4" stroke="#DADAE4" stroke-width="0.8"/>
<path d="M182.869 123H168.131C166.678 123 166 123.895 166 124.999C166 126.104 166.678 127 168.131 127H182.869C184.322 127 185 126.104 185 124.999C185 123.895 184.322 123 182.869 123Z" fill="#DADAE4"/>
<path d="M182.869 131H168.131C166.678 131 166 131.895 166 132.999C166 134.104 166.678 135 168.131 135H182.869C184.322 135 185 134.104 185 132.999C185 131.895 184.322 131 182.869 131Z" fill="#DADAE4"/>
</svg>

<svg width="235" height="176" viewBox="0 0 235 176" fill="none" xmlns="http://www.w3.org/2000/svg"><path d="M229.566 162.661c0 2.124-.885 4.072-2.302 5.489-1.416 1.416-3.364 2.302-5.489 2.302H210v4.781h11.864c3.453 0 6.551-1.417 8.853-3.63 2.302-2.302 3.63-5.401 3.63-8.854V150h-4.781v12.661zM7.083 168.061c-1.417-1.416-2.302-3.364-2.302-5.489V150H0v12.661c0 3.453 1.417 6.551 3.63 8.853 2.39 2.214 5.49 3.63 8.942 3.63h11.864v-4.781H12.572c-2.125 0-4.073-.885-5.49-2.302zM230.806 3.63C228.504 1.328 225.405 0 221.952 0H210v4.78h11.864c2.125 0 4.072.886 5.489 2.303 1.417 1.416 2.302 3.364 2.302 5.49v12.66h4.781v-12.75c0-3.452-1.417-6.551-3.63-8.853zM3.63 3.63C1.328 5.932 0 9.03 0 12.484v12.66h4.78v-12.66c0-2.125.886-4.073 2.303-5.49 1.416-1.416 3.364-2.302 5.49-2.302h11.863V0H12.483C9.031 0 5.932 1.417 3.63 3.63z" fill="#DADAE4"/><path d="M162 145.088c0 2.714-2.252 4.912-5.029 4.912s-5.029-2.198-5.029-4.912c0-31.512-16.08-36.299-29.943-36.299-13.863 0-29.943 9.48-29.943 36.299 0 2.714-2.25 4.912-5.027 4.912S82 147.802 82 145.088c0-24.473 11.66-35.191 21.892-41.213-10.232-6.023-17.09-16.982-17.09-29.482C86.802 55.43 102.592 40 122 40c19.409 0 35.199 15.43 35.199 34.393 0 12.5-5.672 23.46-15.904 29.482 8.941 4.914 20.706 12.048 20.706 41.213zm-14.861-70.695c0-13.547-11.277-24.567-25.14-24.567-13.863 0-25.14 11.02-25.14 24.567s11.277 24.567 25.14 24.567c13.863 0 25.14-11.02 25.14-24.567z" fill="#DADAE4" stroke="#fff" stroke-width="5"/><path d="M188.061 111h-49.94a6.128 6.128 0 0 0-6.121 6.121v26.661a6.128 6.128 0 0 0 6.121 6.121h49.94a6.128 6.128 0 0 0 6.121-6.121v-26.661a6.128 6.128 0 0 0-6.121-6.121z" fill="#fff"/><path d="M188.061 110.6h-49.94a6.528 6.528 0 0 0-6.521 6.521v26.661a6.528 6.528 0 0 0 6.521 6.521h49.94a6.528 6.528 0 0 0 6.521-6.521v-26.661a6.528 6.528 0 0 0-6.521-6.521zm3.617 33.182a3.622 3.622 0 0 1-3.617 3.618h-49.94a3.623 3.623 0 0 1-3.618-3.618v-26.661a3.623 3.623 0 0 1 3.618-3.618h49.94a3.622 3.622 0 0 1 3.617 3.618v26.661z" fill="#DADAE4" stroke="#DADAE4" stroke-width=".8"/><path d="M143.6 144.708c0 .796.662 1.419 1.452 1.419.79 0 1.452-.623 1.452-1.419 0-3.205.824-4.956 1.909-5.917 1.094-.968 2.539-1.213 3.954-1.213 1.363 0 2.822.462 3.938 1.564 1.112 1.096 1.925 2.868 1.925 5.566 0 .796.662 1.419 1.452 1.419.789 0 1.452-.623 1.452-1.419 0-2.606-.627-4.509-1.552-5.928-.771-1.184-1.737-2.012-2.677-2.628 1.948-1.367 3.224-3.593 3.224-6.109 0-4.167-3.494-7.535-7.762-7.535-4.269 0-7.762 3.368-7.762 7.535 0 2.51 1.27 4.731 3.21 6.099-.91.538-1.88 1.179-2.653 2.258-.941 1.314-1.562 3.231-1.562 6.308zm3.908-14.665c0-2.578 2.168-4.696 4.859-4.696s4.859 2.118 4.859 4.696c0 2.577-2.168 4.696-4.859 4.696s-4.859-2.119-4.859-4.696z" fill="#DADAE4" stroke="#DADAE4" stroke-width=".8"/><path d="M182.869 123h-14.738c-1.453 0-2.131.895-2.131 1.999 0 1.105.678 2.001 2.131 2.001h14.738c1.453 0 2.131-.896 2.131-2.001 0-1.104-.678-1.999-2.131-1.999zM182.869 131h-14.738c-1.453 0-2.131.895-2.131 1.999 0 1.105.678 2.001 2.131 2.001h14.738c1.453 0 2.131-.896 2.131-2.001 0-1.104-.678-1.999-2.131-1.999z" fill="#DADAE4"/></svg>
